mosque.svg

<svg fill="currentColor" viewBox="0 0 24 24"><path d="M7 8h10c.3 0 .6.1.8.1.1-.3.2-.7.2-1 0-1.3-.6-2.5-1.7-3.2L12 1 7.7 3.8c-1 .8-1.7 2-1.7 3.3 0 .4.1.7.2 1 .2 0 .5-.1.8-.1m17-1c0-1.1-2-3-2-3s-2 1.9-2 3c0 .7.4 1.4 1 1.7V13h-2v-2c0-1.1-.9-2-2-2H7c-1.1 0-2 .9-2 2v2H3V8.7c.6-.3 1-1 1-1.7 0-1.1-2-3-2-3S0 5.9 0 7c0 .7.4 1.4 1 1.7V21h9v-4c0-1.1.9-2 2-2s2 .9 2 2v4h9V8.7c.6-.3 1-1 1-1.7"/></svg>

<svg  viewBox="0 0 24 24" fill="currentColor"><path  d="M7 8H17C17.3 8 17.6 8.1 17.8 8.1C17.9 7.8 18 7.4 18 7.1C18 5.8 17.4 4.6 16.3 3.9L12 1L7.7 3.8C6.7 4.6 6 5.8 6 7.1C6 7.5 6.1 7.8 6.2 8.1C6.4 8.1 6.7 8 7 8M24 7C24 5.9 22 4 22 4S20 5.9 20 7C20 7.7 20.4 8.4 21 8.7V13H19V11C19 9.9 18.1 9 17 9H7C5.9 9 5 9.9 5 11V13H3V8.7C3.6 8.4 4 7.7 4 7C4 5.9 2 4 2 4S0 5.9 0 7C0 7.7 .4 8.4 1 8.7V21H10V17C10 15.9 10.9 15 12 15S14 15.9 14 17V21H23V8.7C23.6 8.4 24 7.7 24 7Z"/></svg>
